src/assets/images/house-character.svg

<svg xmlns="http://www.w3.org/2000/svg" width="324" height="411" fill="none">
  <ellipse cx="186" cy="397" fill="#D3AE83" rx="112" ry="14" />
  <path
    fill="#3E3028"
    d="M174.809 87.84c61.684 11.963 113.45 31.745 138.347 50.945L193.971 2.837 27.5 82c30.646-8.32 85.896-6.075 147.309 5.84Z"
  />
  <path
    fill="url(#a)"
    d="M174.809 87.84c61.684 11.963 113.45 31.745 138.347 50.945L193.971 2.837 27.5 82c30.646-8.32 85.895-6.075 147.309 5.84Z"
  />
  <path
    fill="#AC9090"
    d="M320.855 160.088c-5.062 29.685-80.911 41.565-169.413 26.533C62.939 171.589-4.703 135.338.358 105.653 5.42 75.967 81.268 64.088 169.772 79.12c88.502 15.032 156.145 51.283 151.083 80.968Z"
  />
  <path
    fill="url(#b)"
    d="M320.855 160.088c-5.062 29.685-80.911 41.565-169.413 26.533C62.939 171.589-4.703 135.338.358 105.653 5.42 75.967 81.268 64.088 169.772 79.12c88.502 15.032 156.145 51.283 151.083 80.968Z"
  />
  <path fill="#552020" d="M75 308.5 10 269l221.5 10.5 30 40.5L75 308.5Z" />
  <g fill="#F7EAE3">
    <path d="M37.702 111.625 10 269.001l221.5 10.5 13.5-171.5-207.298 3.624Z" />
    <path d="M37.702 111.625 10 269.001l221.5 10.5 13.5-171.5-207.298 3.624Z" />
    <path d="M37.702 111.625 10 269.001l221.5 10.5 13.5-171.5-207.298 3.624Z" />
    <path d="M37.702 111.625 10 269.001l221.5 10.5 13.5-171.5-207.298 3.624Z" />
  </g>
  <path
    fill="url(#c)"
    d="M37.702 111.624 10 269l221.5 10.5L245 108l-207.298 3.624Z"
  />
  <path
    fill="url(#d)"
    d="M37.702 111.624 10 269l221.5 10.5L245 108l-207.298 3.624Z"
  />
  <path
    fill="url(#e)"
    d="M37.702 111.624 10 269l221.5 10.5L245 108l-207.298 3.624Z"
  />
  <path
    fill="url(#f)"
    d="M37.702 111.624 10 269l221.5 10.5L245 108l-207.298 3.624Z"
  />
  <path
    fill="#722727"
    d="M261.5 320c1-43.5 5.5-151.5 5.5-151.5L245 108l-13.5 171.5c3.544 4.861 30 40.5 30 40.5Z"
  />
  <path
    fill="#5B443A"
    d="M144.944 145.504c3.871 0 7.008-3.126 7.008-6.982 0-3.856-3.137-6.982-7.008-6.982-3.87 0-7.007 3.126-7.007 6.982 0 3.856 3.137 6.982 7.007 6.982ZM91.124 145.504c3.87 0 7.008-3.126 7.008-6.982 0-3.856-3.137-6.982-7.008-6.982-3.87 0-7.007 3.126-7.007 6.982 0 3.856 3.137 6.982 7.007 6.982ZM108.705 158.172c3.089 0 5.593-2.495 5.593-5.572 0-3.078-2.504-5.573-5.593-5.573s-5.594 2.495-5.594 5.573c0 3.077 2.505 5.572 5.594 5.572Z"
  />
  <path
    stroke="#5B443A"
    stroke-linecap="round"
    stroke-miterlimit="10"
    stroke-width="7"
    d="M113.312 171.467c-.514 8.619 5.688 12.058 11.63 11.808 6.558-.276 11.394-5.815 10.901-14.007"
  />
  <path
    fill="#936A59"
    d="m123.841 296.669-14.978-.13c-.687 2.36-.098 11.093 3.288 23.548 2.104 7.738 18.163 58.516 20.841 64.751l-21.378-3.516c-7.641-1.693-20.505.383-24.59 10.643-5.105 12.825 7.924 10.957 22.387 12.858 14.464 1.901 38.016-1.311 40.539-4.395 2.524-3.084.994-12.135-3.57-24.498-6.248-16.926-17.57-57.472-22.539-79.261Z"
  />
  <path
    fill="url(#g)"
    d="m123.841 296.669-14.978-.13c-.687 2.36-.098 11.093 3.288 23.548 2.104 7.738 18.163 58.516 20.841 64.751l-21.378-3.516c-7.641-1.693-20.505.383-24.59 10.643-5.105 12.825 7.924 10.957 22.387 12.858 14.464 1.901 38.016-1.311 40.539-4.395 2.524-3.084.994-12.135-3.57-24.498-6.248-16.926-17.57-57.472-22.539-79.261Z"
  />
  <path
    fill="#936A59"
    d="m182.019 299.671-14.979-.13c-.686 2.36-.097 11.093 3.289 23.548 2.104 7.738 18.163 58.516 20.841 64.751l-21.378-3.516c-7.641-1.693-20.505.383-24.589 10.643-5.106 12.825 7.922 10.956 22.386 12.858 14.463 1.901 38.015-1.311 40.539-4.395 2.524-3.084.993-12.135-3.57-24.498-6.248-16.926-17.571-57.473-22.539-79.261Z"
  />
  <path
    fill="url(#h)"
    d="m182.019 299.671-14.979-.13c-.686 2.36-.097 11.093 3.289 23.548 2.104 7.738 18.163 58.516 20.841 64.751l-21.378-3.516c-7.641-1.693-20.505.383-24.589 10.643-5.106 12.825 7.922 10.956 22.386 12.858 14.463 1.901 38.015-1.311 40.539-4.395 2.524-3.084.993-12.135-3.57-24.498-6.248-16.926-17.571-57.473-22.539-79.261Z"
  />
  <defs>
    <linearGradient
      id="a"
      x1="169.276"
      x2="170.514"
      y1="3.059"
      y2="140.071"
      gradientUnits="userSpaceOnUse"
    >
      <stop stop-color="#A1562B" />
      <stop offset=".635" stop-color="#4C2B19" stop-opacity="0" />
    </linearGradient>
    <linearGradient
      id="b"
      x1="169.772"
      x2="151.511"
      y1="79.12"
      y2="186.632"
      gradientUnits="userSpaceOnUse"
    >
      <stop stop-color="#9B6565" />
      <stop offset="1" stop-color="#AC9090" stop-opacity="0" />
    </linearGradient>
    <linearGradient
      id="c"
      x1="127.19"
      x2="127.19"
      y1="107.789"
      y2="279.719"
      gradientUnits="userSpaceOnUse"
    >
      <stop stop-color="#FDD3C2" />
      <stop offset="1" stop-color="#FFEFE6" stop-opacity="0" />
    </linearGradient>
    <linearGradient
      id="d"
      x1="127.19"
      x2="127.19"
      y1="107.789"
      y2="279.719"
      gradientUnits="userSpaceOnUse"
    >
      <stop stop-color="#FDD3C2" />
      <stop offset="1" stop-color="#FFEFE6" stop-opacity="0" />
    </linearGradient>
    <linearGradient
      id="e"
      x1="127.19"
      x2="127.19"
      y1="107.789"
      y2="279.719"
      gradientUnits="userSpaceOnUse"
    >
      <stop stop-color="#FDD3C2" />
      <stop offset="1" stop-color="#FFEFE6" stop-opacity="0" />
    </linearGradient>
    <linearGradient
      id="f"
      x1="127.19"
      x2="127.19"
      y1="107.789"
      y2="279.719"
      gradientUnits="userSpaceOnUse"
    >
      <stop stop-color="#FDD3C2" />
      <stop offset="1" stop-color="#FFEFE6" stop-opacity="0" />
    </linearGradient>
    <linearGradient
      id="g"
      x1="119.402"
      x2="118.452"
      y1="296.631"
      y2="405.389"
      gradientUnits="userSpaceOnUse"
    >
      <stop stop-color="#2D160D" />
      <stop offset=".93" stop-color="#643927" stop-opacity="0" />
      <stop offset="1" stop-color="#643927" />
    </linearGradient>
    <linearGradient
      id="h"
      x1="177.579"
      x2="176.63"
      y1="299.633"
      y2="408.391"
      gradientUnits="userSpaceOnUse"
    >
      <stop stop-color="#2D160D" />
      <stop offset=".93" stop-color="#643927" stop-opacity="0" />
      <stop offset="1" stop-color="#643927" />
    </linearGradient>
  </defs>
</svg>

<svg
  width="324"
  height="411"
  viewBox="0 0 324 411"
  fill="none"
  xmlns="http://www.w3.org/2000/svg"
>
  <g id="house-character">
    <ellipse id="shadow" cx="186" cy="397" rx="112" ry="14" fill="#D3AE83" />
    <g id="head">
      <path
        id="Vector"
        d="M174.809 87.8396C236.493 99.8026 288.259 119.585 313.156 138.785L193.971 2.83735L27.5 81.9995C58.1462 73.6797 113.396 75.924 174.809 87.8396Z"
        fill="#3E3028"
      />
      <path
        id="Vector_2"
        d="M174.809 87.8396C236.493 99.8026 288.259 119.585 313.156 138.785L193.971 2.83736L27.5 81.9995C58.1462 73.6797 113.395 75.924 174.809 87.8396Z"
        fill="url(#paint0_linear_713_6714)"
      />
      <path
        id="Ellipse 19"
        d="M320.855 160.088C315.793 189.773 239.944 201.653 151.442 186.621C62.9391 171.589 -4.70328 135.338 0.358329 105.653C5.41994 75.9672 81.2688 64.0881 169.772 79.12C258.274 94.152 325.917 130.403 320.855 160.088Z"
        fill="#AC9090"
      />
      <path
        id="Ellipse 20"
        d="M320.855 160.088C315.793 189.773 239.944 201.653 151.442 186.621C62.9391 171.589 -4.70328 135.338 0.358329 105.653C5.41994 75.9672 81.2688 64.0881 169.772 79.12C258.274 94.152 325.917 130.403 320.855 160.088Z"
        fill="url(#paint1_linear_713_6714)"
      />
    </g>
    <g id="body">
      <path
        id="Vector_3"
        d="M75 308.5L10 269L231.5 279.5L261.5 320L75 308.5Z"
        fill="#552020"
      />
      <g id="Vector_4">
        <path
          d="M37.702 111.625L10 269.001L231.5 279.501L245 108.001L37.702 111.625Z"
          fill="#F7EAE3"
        />
        <path
          d="M37.702 111.625L10 269.001L231.5 279.501L245 108.001L37.702 111.625Z"
          fill="#F7EAE3"
        />
        <path
          d="M37.702 111.625L10 269.001L231.5 279.501L245 108.001L37.702 111.625Z"
          fill="#F7EAE3"
        />
        <path
          d="M37.702 111.625L10 269.001L231.5 279.501L245 108.001L37.702 111.625Z"
          fill="#F7EAE3"
        />
      </g>
      <g id="Vector_5">
        <path
          d="M37.702 111.624L10 269L231.5 279.5L245 108L37.702 111.624Z"
          fill="url(#paint2_linear_713_6714)"
        />
        <path
          d="M37.702 111.624L10 269L231.5 279.5L245 108L37.702 111.624Z"
          fill="url(#paint3_linear_713_6714)"
        />
        <path
          d="M37.702 111.624L10 269L231.5 279.5L245 108L37.702 111.624Z"
          fill="url(#paint4_linear_713_6714)"
        />
        <path
          d="M37.702 111.624L10 269L231.5 279.5L245 108L37.702 111.624Z"
          fill="url(#paint5_linear_713_6714)"
        />
      </g>
      <path
        id="Vector_6"
        d="M261.5 320C262.5 276.5 267 168.5 267 168.5L245 108L231.5 279.5C235.044 284.361 261.5 320 261.5 320Z"
        fill="#722727"
      />
    </g>
    <g id="face">
      <path
        id="eye-right"
        d="M144.944 145.504C148.815 145.504 151.952 142.378 151.952 138.522C151.952 134.666 148.815 131.54 144.944 131.54C141.074 131.54 137.937 134.666 137.937 138.522C137.937 142.378 141.074 145.504 144.944 145.504Z"
        fill="#5B443A"
      />
      <path
        id="eye-left"
        d="M91.1244 145.504C94.9947 145.504 98.1323 142.378 98.1323 138.522C98.1323 134.666 94.9947 131.54 91.1244 131.54C87.254 131.54 84.1165 134.666 84.1165 138.522C84.1165 142.378 87.254 145.504 91.1244 145.504Z"
        fill="#5B443A"
      />
      <path
        id="nose"
        d="M108.705 158.172C111.794 158.172 114.298 155.677 114.298 152.6C114.298 149.522 111.794 147.027 108.705 147.027C105.616 147.027 103.111 149.522 103.111 152.6C103.111 155.677 105.616 158.172 108.705 158.172Z"
        fill="#5B443A"
      />
      <path
        id="lip"
        d="M113.312 171.467C112.798 180.086 119 183.525 124.942 183.275C131.5 182.999 136.336 177.46 135.843 169.268"
        stroke="#5B443A"
        stroke-width="7"
        stroke-miterlimit="10"
        stroke-linecap="round"
      />
    </g>
    <g id="leg-left">
      <path
        id="Vector 5"
        d="M123.841 296.669L108.863 296.539C108.176 298.899 108.765 307.632 112.151 320.087C114.255 327.825 130.314 378.603 132.992 384.838L111.614 381.322C103.973 379.629 91.1094 381.705 87.0249 391.965C81.9193 404.79 94.9477 402.922 109.411 404.823C123.875 406.724 147.427 403.512 149.95 400.428C152.474 397.344 150.944 388.293 146.38 375.93C140.132 359.004 128.81 318.458 123.841 296.669Z"
        fill="#936A59"
      />
      <path
        id="Vector 7"
        d="M123.841 296.669L108.863 296.539C108.176 298.899 108.765 307.632 112.151 320.087C114.255 327.825 130.314 378.603 132.992 384.838L111.614 381.322C103.973 379.629 91.1094 381.705 87.0249 391.965C81.9193 404.79 94.9477 402.922 109.411 404.823C123.875 406.724 147.427 403.512 149.95 400.428C152.474 397.344 150.944 388.293 146.38 375.93C140.132 359.004 128.81 318.458 123.841 296.669Z"
        fill="url(#paint6_linear_713_6714)"
      />
    </g>
    <g id="leg-right">
      <path
        id="Vector 8"
        d="M182.019 299.671L167.04 299.541C166.354 301.901 166.943 310.634 170.329 323.089C172.433 330.827 188.492 381.605 191.17 387.84L169.792 384.324C162.151 382.631 149.287 384.707 145.203 394.967C140.097 407.792 153.125 405.923 167.589 407.825C182.052 409.726 205.604 406.514 208.128 403.43C210.652 400.346 209.121 391.295 204.558 378.932C198.31 362.006 186.987 321.459 182.019 299.671Z"
        fill="#936A59"
      />
      <path
        id="Vector 9"
        d="M182.019 299.671L167.04 299.541C166.354 301.901 166.943 310.634 170.329 323.089C172.433 330.827 188.492 381.605 191.17 387.84L169.792 384.324C162.151 382.631 149.287 384.707 145.203 394.967C140.097 407.792 153.125 405.923 167.589 407.825C182.052 409.726 205.604 406.514 208.128 403.43C210.652 400.346 209.121 391.295 204.558 378.932C198.31 362.006 186.987 321.459 182.019 299.671Z"
        fill="url(#paint7_linear_713_6714)"
      />
    </g>
  </g>
  <defs>
    <linearGradient
      id="paint0_linear_713_6714"
      x1="169.276"
      y1="3.05902"
      x2="170.514"
      y2="140.071"
      gradientUnits="userSpaceOnUse"
    >
      <stop stop-color="#A1562B" />
      <stop offset="0.635" stop-color="#4C2B19" stop-opacity="0" />
    </linearGradient>
    <linearGradient
      id="paint1_linear_713_6714"
      x1="169.772"
      y1="79.12"
      x2="151.511"
      y2="186.632"
      gradientUnits="userSpaceOnUse"
    >
      <stop stop-color="#9B6565" />
      <stop offset="1" stop-color="#AC9090" stop-opacity="0" />
    </linearGradient>
    <linearGradient
      id="paint2_linear_713_6714"
      x1="127.19"
      y1="107.789"
      x2="127.19"
      y2="279.719"
      gradientUnits="userSpaceOnUse"
    >
      <stop stop-color="#FDD3C2" />
      <stop offset="1" stop-color="#FFEFE6" stop-opacity="0" />
    </linearGradient>
    <linearGradient
      id="paint3_linear_713_6714"
      x1="127.19"
      y1="107.789"
      x2="127.19"
      y2="279.719"
      gradientUnits="userSpaceOnUse"
    >
      <stop stop-color="#FDD3C2" />
      <stop offset="1" stop-color="#FFEFE6" stop-opacity="0" />
    </linearGradient>
    <linearGradient
      id="paint4_linear_713_6714"
      x1="127.19"
      y1="107.789"
      x2="127.19"
      y2="279.719"
      gradientUnits="userSpaceOnUse"
    >
      <stop stop-color="#FDD3C2" />
      <stop offset="1" stop-color="#FFEFE6" stop-opacity="0" />
    </linearGradient>
    <linearGradient
      id="paint5_linear_713_6714"
      x1="127.19"
      y1="107.789"
      x2="127.19"
      y2="279.719"
      gradientUnits="userSpaceOnUse"
    >
      <stop stop-color="#FDD3C2" />
      <stop offset="1" stop-color="#FFEFE6" stop-opacity="0" />
    </linearGradient>
    <linearGradient
      id="paint6_linear_713_6714"
      x1="119.402"
      y1="296.631"
      x2="118.452"
      y2="405.389"
      gradientUnits="userSpaceOnUse"
    >
      <stop stop-color="#2D160D" />
      <stop offset="0.93" stop-color="#643927" stop-opacity="0" />
      <stop offset="1" stop-color="#643927" />
    </linearGradient>
    <linearGradient
      id="paint7_linear_713_6714"
      x1="177.579"
      y1="299.633"
      x2="176.63"
      y2="408.391"
      gradientUnits="userSpaceOnUse"
    >
      <stop stop-color="#2D160D" />
      <stop offset="0.93" stop-color="#643927" stop-opacity="0" />
      <stop offset="1" stop-color="#643927" />
    </linearGradient>
  </defs>
</svg>
